X:973
T:Killimor Jig, The
S:Gerry Harrington, The Fiddle the Voice (2005)
Z:Nigel Gatherer
L:1/8
M:6/8
K:D
DEF G3 | BAG ABc | d3 f/g/af | ded cAF |
DEF G3 | BAG ABc | d3 fed | cAF G2 E :|
GBd g3 | dgb gdB | GBd g3 | fed cAF |
GBd g3 | [Bd]gb gdB | GBd fed | eAF G2 E :|]
<end>
<start>
